icons/Media/voiceprint-fill.svg

<svg xmlns="http://www.w3.org/2000/svg" viewBox="0 0 24 24">
    <g>
        <path fill="none" d="M0 0h24v24H0z"/>
        <path d="M5 7h2v10H5V7zm-4 3h2v4H1v-4zm8-8h2v18H9V2zm4 2h2v18h-2V4zm4 3h2v10h-2V7zm4 3h2v4h-2v-4z"/>
    </g>
</svg>

<svg viewBox="0 0 24 24" xmlns="http://www.w3.org/2000/svg"><path d="M5 7H7V17H5V7ZM1 10H3V14H1V10ZM9 2H11V20H9V2ZM13 4H15V22H13V4ZM17 7H19V17H17V7ZM21 10H23V14H21V10Z"/></svg>
